X: 1513
T: Andy McGann's
R: jig
M: 6/8
K: Dmajor
A,|D2 F EDB,|DFA dcd|edB AFE|FEF EDB,|
D2 F EDB,|DFA dcd|edB AFE|EDC D2:|
A|d2 f ede|fdB AFA|BdB AFD|FEE EFA|
d2 f ede|fdB AFA|B/c/dB AFE|EDC D2 A||
d2 f ede|fdB AFA|B/c/dB AFE|CDE A,3|
ABc d2 f|edB AFE|FEF DEF|EDC D2z|

